app/dist/common/images/allianz-saudi-fransi.svg

<svg height="18" width="18" xmlns="http://www.w3.org/2000/svg"><path d="m0 0h18v18h-18z" fill="#023681"/><path d="m15 9a6 6 0 1 1 -12 0 6 6 0 0 1 12 0zm-1 0a5 5 0 1 1 -10 0 5 5 0 0 1 10 0zm-7.5-2.5a.5.5 0 0 0 -.5.5v5h1v-5.5zm5.5.5a.5.5 0 0 0 -.5-.5h-.5v5.5h1zm-3-1.5c.28 0 .5.22.5.5v6h-1v-5.85h-.5v-.65z" fill="#fff" fill-rule="evenodd"/></svg>

<!-- by TradingView --><svg xmlns="http://www.w3.org/2000/svg" width="18" height="18"><path fill="#023681" d="M0 0h18v18H0z"/><path fill-rule="evenodd" d="M15 9A6 6 0 113 9a6 6 0 0112 0zm-1 0A5 5 0 114 9a5 5 0 0110 0zM6.5 6.5A.5.5 0 006 7v5h1V6.5h-.5zM12 7a.5.5 0 00-.5-.5H11V12h1V7zM9 5.5c.28 0 .5.22.5.5v6h-1V6.15H8V5.5h1z" fill="#fff"/></svg>
